svg/weather/partly_cloud_daytime_line.svg

<?xml version="1.0" encoding="UTF-8"?>
<svg width="24px" height="24px" viewBox="0 0 24 24" version="1.1" xmlns="http://www.w3.org/2000/svg" xmlns:xlink="http://www.w3.org/1999/xlink">
    <title>partly_cloud_daytime_line</title>
    <g id="Icon" stroke="none" stroke-width="1" fill="none" fill-rule="evenodd">
        <g id="Weather" transform="translate(-817.000000, -192.000000)">
            <g id="partly_cloud_daytime_line" transform="translate(817.000000, 192.000000)">
                <path d="M24,0 L24,24 L0,24 L0,0 L24,0 Z M12.5935,23.2578 L12.5819,23.2595 L12.5109,23.295 L12.4919,23.2987 L12.4767,23.295 L12.4057,23.2595 C12.3958,23.2564 12.387,23.259 12.3821,23.2649 L12.378,23.2758 L12.3609,23.7031 L12.3659,23.7235 L12.3769,23.7357 L12.4805,23.8097 L12.4953,23.8136 L12.5071,23.8097 L12.6107,23.7357 L12.6233,23.7197 L12.6267,23.7031 L12.6096,23.2758 C12.6076,23.2657 12.601,23.2593 12.5935,23.2578 Z M12.8584,23.1453 L12.8445,23.1473 L12.6598,23.2397 L12.6499,23.2499 L12.6472,23.2611 L12.6651,23.6906 L12.6699,23.7034 L12.6784,23.7105 L12.8793,23.8032 C12.8914,23.8069 12.9022,23.803 12.9078,23.7952 L12.9118,23.7812 L12.8777,23.1665 C12.8753,23.1546 12.8674,23.147 12.8584,23.1453 Z M12.143,23.1473 C12.1332,23.1424 12.1222,23.1453 12.1156,23.1526 L12.1099,23.1665 L12.0758,23.7812 C12.0751,23.7927 12.0828,23.8019 12.0926,23.8046 L12.1083,23.8032 L12.3092,23.7105 L12.3186,23.7024 L12.3225,23.6906 L12.3404,23.2611 L12.3372,23.2485 L12.3278,23.2397 L12.143,23.1473 Z" id="MingCute" fill-rule="nonzero"></path>
                <path d="M12,6 C8.68629,6 6,8.68629 6,12 C6,12.0711 6.00123,12.1419 6.00368,12.2123 C6.39367,12.0749 6.81322,12 7.25,12 C8.76879,12 10.0749,12.9022 10.6648,14.1988 C12.0253,14.6789 13,15.9749 13,17.5 C13,17.6425 12.9914,17.783 12.9748,17.9212 C15.8249,17.4555 18,14.9818 18,12 C18,11.081 17.7941,10.2128 17.4268,9.43679 C17.0945,8.73472 16.6294,8.10665 16.0635,7.58546 C14.9939,6.60031 13.5682,6 12,6 Z M11.9496,19.9998 C11.3191,20.6175 10.4542,21 9.5,21 L5,21 C3.34315,21 2,19.6569 2,18 C2,16.8819 2.61112,15.908 3.51692,15.392 C3.57904,14.7376 3.80961,14.1316 4.1641,13.619 C4.05643,13.0954 4,12.5538 4,12 C4,7.58172 7.58172,4 12,4 C13.5681,4 15.032,4.45192 16.2669,5.23187 C16.7214,4.56101 17.4898,4.12013 18.3611,4.12013 C19.3189,4.12013 20.1507,4.65224 20.5797,5.43603 C21.4165,5.80763 22,6.64508 22,7.62011 C22,8.89317 21.0042,9.93363 19.749,10.0051 C19.9129,10.6434 20,11.312 20,12 C20,16.4183 16.4183,20 12,20 C11.9832,20 11.9664,19.9999 11.9496,19.9998 Z M18.9347,8.00899 L19.6111,8.00899 C19.8259,8.00899 20,7.83487 20,7.62011 C20,7.42779 19.8594,7.26638 19.6754,7.23637 C19.2878,7.17314 18.973,6.88883 18.8708,6.50958 C18.8102,6.2845 18.6036,6.12013 18.3611,6.12013 C18.1074,6.12013 17.8956,6.29908 17.8449,6.5376 C18.2614,6.98317 18.6278,7.47662 18.9347,8.00899 Z M7.25,14 C6.74858,14 6.29773,14.2096 5.9774,14.5487 C5.68053,14.8631 5.5,15.2844 5.5,15.75 C5.5,15.8172 5.50374,15.8831 5.51095,15.9477 C5.56662,16.4461 5.24452,16.9086 4.75776,17.0293 C4.32202,17.1373 4,17.5323 4,18 C4,18.5523 4.44772,19 5,19 L9.5,19 C9.99454,19 10.4332,18.7617 10.7081,18.3894 C10.8918,18.1406 11,17.8344 11,17.5 C11,16.7554 10.4565,16.1358 9.74453,16.0197 C9.35688,15.9564 9.04214,15.6721 8.93996,15.2929 C8.73908,14.5474 8.05718,14 7.25,14 Z" id="形状" fill="#09244B"></path>
            </g>
        </g>
    </g>
</svg>

<svg xmlns="http://www.w3.org/2000/svg" width="24" height="24"><g fill="none" fill-rule="evenodd"><path d="M24 0v24H0V0h24ZM12.594 23.258l-.012.002-.071.035-.02.004-.014-.004-.071-.036c-.01-.003-.019 0-.024.006l-.004.01-.017.428.005.02.01.013.104.074.015.004.012-.004.104-.074.012-.016.004-.017-.017-.427c-.002-.01-.009-.017-.016-.018Zm.264-.113-.014.002-.184.093-.01.01-.003.011.018.43.005.012.008.008.201.092c.012.004.023 0 .029-.008l.004-.014-.034-.614c-.003-.012-.01-.02-.02-.022Zm-.715.002a.023.023 0 0 0-.027.006l-.006.014-.034.614c0 .012.007.02.017.024l.015-.002.201-.093.01-.008.003-.011.018-.43-.003-.012-.01-.01-.184-.092Z"/><path fill="#09244B" d="M12 6a6 6 0 0 0-5.996 6.212 3.75 3.75 0 0 1 4.661 1.986 3.5 3.5 0 0 1 2.31 3.723A6.002 6.002 0 0 0 12 6Zm-.05 14a3.49 3.49 0 0 1-2.45 1H5a3 3 0 0 1-1.483-5.608c.062-.654.293-1.26.647-1.773a8 8 0 0 1 12.103-8.387 2.526 2.526 0 0 1 4.313.204 2.388 2.388 0 0 1-.831 4.57A8 8 0 0 1 12 20l-.05-.001Zm6.985-11.991h.676a.389.389 0 0 0 .064-.773 1 1 0 0 1-.804-.726.528.528 0 0 0-1.026.028c.416.445.783.939 1.09 1.471ZM7.25 14c-.501 0-.952.21-1.273.549a1.74 1.74 0 0 0-.466 1.399 1 1 0 0 1-.753 1.081A1 1 0 0 0 5 19h4.5a1.497 1.497 0 0 0 1.5-1.5 1.5 1.5 0 0 0-1.255-1.48 1 1 0 0 1-.805-.727A1.751 1.751 0 0 0 7.25 14Z"/></g></svg>
